X: 40227
T: Tip The Cruiskeen
R: jig
M: 6/8
K: Dmajor
d2e f2d|e2c d2B|fdB BdB|fdB BdB|
d2e f2d|e2c d2B|ecA AcA|ecA AcA||
a2f g2e|f2d fga|ecA AcA|ecA AcA|
a2f g2e|f2d fga|ecA AcA|ecA AcA|

